X:1
T:A Virgin Did Come
T:A Virgin Did Come
T:G. H. Gregory
T:Samuel Childs Clarke, before 1917
T:Public Domain Courtesy of the Cyber Hymnal™
T:Public Domain Courtesy of the Cyber Hymnal™
C:G. H. Gregory
Z:Public Domain
Z:Courtesy of the Cyber Hymnal™
%%score ( 1 2 ) ( 3 4 )
L:1/8
Q:1/4=115
M:3/4
K:Eb
V:1 treble 
V:2 treble 
V:3 bass 
V:4 bass 
V:1
 [EB]2 | [EB]2 [Ee]2 [EG]2 | [EB]4 [DB][DB] | [EB]2 [CE]2 [DF]2 | [EG]4 [F=A]2 | %5
w: 1.~A|vir- gin did|come fro- m|low- li- est|home, And|
w: 2.~That|Babe was a|king, mys- tic|gifts, lo, they|bring, Sure|
w: 3.~Ac-|comp- lished their|hope, the- ir|trea- sures they|ope— Gold,|
w: 4.~No|tok- ens of|state round that|roy- al Babe|wait, Seeming|
 [FB]2 [=Ac]2 [Bd]2 | [Gd]2 [Gc]2 [GB]2 | [FB]2 [F=A]2 [Ac]2 | B4 [FB]2 | [EB]2 [Ee]2 [EG]2 | %10
w: shel- ter she|fain in a|man- ger would|find; For|full was the|
w: tok- ens they|were of some|great one to|be; To|Beth- le- hem|
w: frank- in- cense,|myrrh, to that|In- fant they|brought, Gifts|cost- ly and|
w: least, and yet|great- est, of|mon- archs was|He; But~in|rev- er- ence|
 [Ec]4 [Ac][Gc] | [Fc]2 F2 G2 | [FA]4 [GB]2 | [Ac]2 [Bd]2 [Be]2 | [FB]2 [FA]2 [EG]2 | %15
w: inn, and no|room was with-|in, Save|where to the|stalls the mute|
w: led, East- ern|sag- es have|sped From|afar “The de-|sire of all|
w: rare, full of|mean- ing they|were, Though|not yet un-|veiled were the|
w: low, prince- ly|Ma- gi did|bow, As|though they di-|vined all His|
 [EB]2 [CE]2 [DF]2 | E4 ||"^Refrain" [DF][EG] | [EA]2 [EA]2 (GF) | G3 z A [EB]2 | %20
w: ox- en they|bind.||||
w: na- tions” to|see.||||
w: great truths they|taught.||||
w: true dig- ni-|ty.||||
 [Ec]2 [Ad]2 [Ge]2 | [Fd]>[Ec] [DB]2 [DB]2 | [Ee]2 [EB]2 [EG]2 | [EB]2 [EG]2 [CE]2 | %24
w: ||||
w: ||||
w: ||||
w: ||||
 [B,F]2 [B,D]2 [DF]2 | E4 |] %26
w: ||
w: ||
w: ||
w: ||
V:2
 x2 | x6 | x6 | x6 | x6 | x6 | x6 | x6 | B4 x2 | x6 | x6 | x2 F2 x2 | x6 | x6 | x6 | x6 | E4 || %17
 x2 | x4 B,2 | B,2 E2 x3 | x6 | x6 | x6 | x6 | x6 | E4 |] %26
V:3
 [E,G,]2 | [E,G,]2 [E,G,]2 [E,B,]2 | [F,A,]4 [F,A,]2 | [G,B,]2 [A,C]2 [F,A,]2 | [E,B,]4 [E,C]2 | %5
w: ~|~ ~ ~|~ ~|~ ~ ~|~ ~|
 [D,B,]2 [C,E]2 [B,,F]2 | [E,F]2 [E,E]2 [=E,D]2 | [F,D]2 [F,C]2 [F,E]2 | [B,,D]4 B,2 | %9
w: ~ ~ ~|~ ~ ~|~ ~ ~|~ ~|
 [G,E]2 [G,E]2 [E,_D]2 | [A,C]4 [C=E][B,E] | [A,F]2 [A,C]2 C2 | [F,C]4 [E,E]2 | %13
w: ~ ~ ~|~ ~ ~|~ ~ ~|~ ~|
 [A,E]2 [A,F]2 [G,E]2 | [D,F]2 [D,B,]2 [D,B,]2 | [B,,G,]2 [B,,G,]2 [B,,A,]2 | [E,G,]4 || %17
w: ~ ~ ~|~ ~ ~|~ ~ ~|~|
 [B,,B,][E,B,] | [C,A,]2 [C,A,]2 [D,A,]2 | (G,2 z) [G,B,]2 x2 | A,4 [E,B,]2 | B,>B, B,2 B,2 | %22
w: O how|won- drous the|love and|the deep|hu- mil- i- ty|
 [G,B,]2 [G,B,]2 [E,B,]2 | [G,B,]2 [G,,B,]2 [A,,A,]2 | [B,,G,]2 [B,,F,]2 [B,,A,]2 | [E,G,]4 |] %26
w: Of Him who|was laid in|the man- ger|for|
V:4
 x2 | x6 | x6 | x6 | x6 | x6 | x6 | x6 | x4 (G,F,) | x6 | x6 | x4 C2 | x6 | x6 | x6 | x6 | x4 || %17
 x2 | x6 | E,3 (B,2 F,) x | (A,2 F,2) x2 | B,>B, B,2 (B,A,) | x6 | x6 | x6 | x4 |] %26

